X:1
T:Pom-pom, pom-pom-pom
C:Traditional
Z:Public Domain
L:1/8
M:4/4
K:C
V:1 treble 
%%MIDI program 52
V:1
"C" C2 C2"G" B,D"C" C2 |"C" EEEE"F" DF"C" E2 |"C" GGGG"F" cG"C" E2 |"C" GF"G"ED"C" C4 |] %4
w: Pom- pom, pom- pom- pom,|Ki ko- pog az ab- la- kon?|Ta- lán bi- zony Mi- ku- lás?|Búj- junk el, paj- tás!|

